src/shared/assets/feed/icon/white_image-flash-1-Streamline-Plump.svg

<svg width="24" height="24" viewBox="0 0 24 24" fill="none" xmlns="http://www.w3.org/2000/svg">
<path d="M15.875 0.871026C14.0443 0.765676 10.92 0.656851 7.83975 0.882091C6.8156 0.956986 5.93135 1.61902 5.56705 2.57644C4.01385 6.65845 3.27394 10.4237 2.9587 12.4185C2.76094 13.67 3.67052 14.7858 4.92157 14.8717C5.99065 14.9451 7.5608 15.0211 9.39415 15.0111C9.1988 16.598 8.99525 18.7149 8.7932 20.9922C8.61225 23.0322 11.0653 24.2586 12.5254 22.694C16.2738 18.6776 19.7101 14.2111 21.5946 11.6656C22.6313 10.2653 21.7183 8.3065 19.9481 8.26045C19.132 8.2392 18.1311 8.227 16.9534 8.2372C17.3017 6.7178 17.6166 5.0677 17.9061 3.47462C18.1412 2.18079 17.2145 0.948101 15.875 0.871026Z" fill="black"/>
</svg>

<svg xmlns="http://www.w3.org/2000/svg" fill="none" viewBox="0 0 24 24"><path fill="#000" d="M15.875.871C14.045.766 10.92.657 7.84.882a2.64 2.64 0 0 0-2.273 1.694c-1.553 4.082-2.293 7.848-2.608 9.843a2.12 2.12 0 0 0 1.963 2.453c1.069.073 2.639.15 4.472.14-.195 1.586-.399 3.703-.6 5.98-.182 2.04 2.271 3.267 3.731 1.702 3.749-4.016 7.185-8.483 9.07-11.028 1.036-1.4.123-3.36-1.647-3.406a87 87 0 0 0-2.995-.023c.349-1.52.664-3.17.953-4.762.235-1.294-.691-2.527-2.031-2.604"/></svg>
